X: 9
T:Dick the Welshman
M:4/4
L:1/8
Q:220
C:Trad
R:Welsh reel
A:Wales
H:From Thompson's  "Compleat Collection of Country Dances",
H:c1764.
Z:brian_martin12345@yahoo.com
K:G
d|{c}BAGB cedB|egdB cAAd|{c}BAGB cedB|egdc BGGd|{c}BAGB cedB|
egdB cAAd|{c}BAGB cedB|egdc BGGd|egfg dgfg|(3cde dB cAAd|
egfg dgfg|(3cde dc BGG||
